icons/Replit-Light.svg

<svg width="256" height="256" viewBox="0 0 256 256" fill="none" xmlns="http://www.w3.org/2000/svg">
<rect width="256" height="256" rx="60" fill="#F4F4ED"/>
<path d="M53 49.25C53 43.037 58.037 38 64.25 38H116.75C122.963 38 128 43.037 128 49.25V98.0001H64.25C58.037 98.0001 53 92.9631 53 86.7501V49.25Z" fill="#F26207"/>
<path d="M127.999 98.002H191.749C197.962 98.002 202.999 103.039 202.999 109.252V146.752C202.999 152.965 197.962 158.002 191.749 158.002H127.999V98.002Z" fill="#F26207"/>
<path d="M53 169.25C53 163.037 58.037 158 64.25 158H128V206.75C128 212.963 122.963 218 116.75 218H64.25C58.037 218 53 212.963 53 206.75V169.25Z" fill="#F26207"/>
</svg>

<svg xmlns="http://www.w3.org/2000/svg" width="256" height="256" fill="none" viewBox="0 0 256 256"><rect width="256" height="256" fill="#F4F4ED" rx="60"/><path fill="#F26207" d="M53 49.25C53 43.04 58.04 38 64.25 38h52.5c6.21 0 11.25 5.04 11.25 11.25V98H64.25A11.25 11.25 0 0 1 53 86.75zM128 98h63.75c6.21 0 11.25 5.04 11.25 11.25v37.5c0 6.22-5.04 11.25-11.25 11.25H128zm-75 71.25c0-6.21 5.04-11.25 11.25-11.25H128v48.75c0 6.21-5.04 11.25-11.25 11.25h-52.5A11.25 11.25 0 0 1 53 206.75z"/></svg>
